X:1
T:Title
%%score 1 { ( 2 3 ) | 4 }
L:1/8
Q:1/4=106
M:4/4
K:F
V:1 treble nm="Akkordion"
V:2 treble nm="Grand Piano"
V:3 treble 
V:4 bass 
V:1
 C2 F2 A2 c2 | c3 A c4 | A2 G2 c4- | c6 z2 | C2 F2 A2 c2 | c3 A c4 | A2 G2 c2 A2 | F6 z2 | z8 | %9
 z8 | z8 | z8 | z8 | z8 | z8 | z8 |] %16
V:2
 [FAc]8 | [FAc]8 | A2 G2 c4 | a2 g2 c'4 | [FAc]8 | [FAc]8 | [CEA]2 [B,EG]2 [Ec]2 [CEA]2 | %7
w: Robert~Harkness|||||||
 [A,F]6 z2 | [CEA]2 [B,EG]2 [Ec]2 [EA]2 | G2 F2 c4 | [^CF]2 [CE]2 [CA]2 [CF]2 | E2 D2 [FA]4 | %12
w: |||||
 [Bd]2 c2 B2 d2 | [Af]2 [Fc]2 [^FB]2 [FA]2 | d4 E3 F | F6 z2 |] %16
w: ||||
V:3
 C6 z2 | x8 | [B,E]8 | x8 | C6 z2 | x8 | x8 | x8 | x8 | x8 | x8 | x8 | x8 | x8 | x8 | x8 |] %16
V:4
 C,2 F,2 A,2 C2 | C3 A, C4 | C,8 | [CB]8 | C,2 F,2 A,2 C2 | C3 A, C4 | C,2 C,2 [C,G,]2 C,2 | %7
 F,6 z2 | C,2 C,2 [C,G,]2 [C,C]2 | [F,B,E]2 [F,A,]2 [F,A,F]4 | %10
 [A,,A,]2 [A,,G,]2 [A,,E,]2 [A,,A,]2 | [D,G,^C]2 [D,F,]2 [D,D]4 | [G,D]2 [A,DA]2 [B,DG]2 [G,B,G]2 | %13
 [C,C]2 [C,A,]2 [D,D]2 [D,C]2 | [G,=B,F]4 [C,_B,C]3 [F,A,C] | [F,A,C]6 z2 |] %16

